X: 4
T: Kom, lilla flicka, valsa med mej
T: Come, little girl, waltz with me
M: 3/4
L: 1/8
K: C
| "C"c2 BA GF | "C"E2 CE G2 | "G7"D2 B,D F2 | "C"E2 CE G2 |
| "C"c2 BA GF | "C"E2 CE G2 | "G7"D2 B,D FE | "C"C6 |]
[| "G7"D2 B,D F2 | "C"E2 CE G2 | "G7"D2 B,D F2 | "C"E2 CE G2 |
| "C"c2 BA GF | "C"E2 CE G2 | "G7"D2 B,D FE | "C"C6 |]
%%sep 1 1 10cm
